Catalina-light/actions/16/bookmark-new.svg

<svg xmlns="http://www.w3.org/2000/svg" width="16" height="16" viewBox="0 0 16 16">
 <defs>
  <style id="current-color-scheme" type="text/css">
   .ColorScheme-Text { color:#5c616c; } .ColorScheme-Highlight { color:#5294e2; }
  </style>
 </defs>
 <path style="fill:currentColor" class="ColorScheme-Text" d="M 4 0.00390625 C 4 0.00390625 3 0.00390625 3 1.0039062 L 3 15.003906 L 8 12.003906 L 13 15.003906 L 13 1.0039062 C 13 1.0039062 13 0.00390625 12 0.00390625 L 4 0.00390625 z M 7 3.0039062 L 9 3.0039062 L 9 5.0039062 L 11 5.0039062 L 11 7.0039062 L 9 7.0039062 L 9 9.0039062 L 7 9.0039062 L 7 7.0039062 L 5 7.0039062 L 5 5.0039062 L 7 5.0039062 L 7 3.0039062 z"/>
</svg>

<svg width="16" height="16" viewBox="0 0 16 16" xmlns="http://www.w3.org/2000/svg">
<defs>
<style id="current-color-scheme" type="text/css">.ColorScheme-Text { color:#5c616c; } .ColorScheme-Highlight { color:#5294e2; }</style>
</defs>
<path class="ColorScheme-Text" d="m4 0.0039062s-1 0-1 1v14l5-3 5 3v-14s0-1-1-1h-8zm3 3h2v2h2v2h-2v2h-2v-2h-2v-2h2v-2z" fill="currentColor"/>
</svg>
